!!!COM: Music21
!!!OTL: reel_Scudding-Through-The-Whins
!!!OMV: reel_Scudding-Through-The-Whins
**kern
*clefG2
*k[f#]
*G:
*M4/4
=1
8d
=||
12gL
12g
12gJ
8bL
8ddJ
8ddL
8ddJ
8bL
8gJ
=
8eL
8eJ
8aL
8gJ
8f#L
8gJ
8aL
8f#J
=
12gL
12g
12gJ
8bL
8ddJ
8ddL
8eeJ
8ggL
8eeJ
=
8ddL
8bJ
8aL
8ddJ
8eL
8gJ
8eL
8dJ
!!linebreak:original
=||
12gL
12g
12gJ
8bL
8ddJ
8ddL
8ddJ
8bL
8gJ
=
8eL
8eJ
8aL
8gJ
8f#L
8gJ
8aL
8f#J
=
12gL
12g
12gJ
8bL
8ddJ
8ddL
8eeJ
8ggL
8eeJ
=
8ddL
8bJ
8aL
8ddJ
8f#L
8gJ
4g
=||
12ggL
12gg
12ggJ
8bbL
8ggJ
8aaL
8ggJ
8bbL
8ggJ
!!linebreak:original
=
8ddL
8ggJ
8bbL
8ggJ
8aaL
8ggJ
8eeL
8ggJ
=
8ggL
8ggJ
8bbL
8ggJ
8eeL
8ff#J
8ggL
8eeJ
=
8ddL
8bJ
8aL
8ddJ
8bL
8gJ
4g
=
12ggL
12gg
12ggJ
8bbL
8ggJ
8aaL
8ggJ
8bbL
8ggJ
=
8ddL
8ggJ
8bbL
8ggJ
8aaL
8ggJ
8eeL
8ff#J
!!linebreak:original
=
8ggL
8aaJ
8ggL
8eeJ
8ddL
8eeJ
8ggL
8eeJ
=
8ddL
8bJ
8aL
8ddJ
8bL
8gJ
8eL
8dJ
=||
*-
